X:068
T: Roudlum
N: O'Farrell's Pocket Companion v.1 (Sky ed. p.48)
N: "Irish"
M: 9/8
L: 1/8
R: slip jig
Q: 320
K: D
A|: d2d ded cBA|d2d fdd fga|fdd edc B2d|AGF EFE EFA :|
Bcd ABG FED|B2d AGF EFA|Bcd ABG FEF|DED AGF EFA :|
